storage/app/icons/phosphoricons/light/pause-light.svg

<svg xmlns="http://www.w3.org/2000/svg" fill="currentColor" viewBox="0 0 256 256"><path d="M200 34h-40a14 14 0 0 0-14 14v160a14 14 0 0 0 14 14h40a14 14 0 0 0 14-14V48a14 14 0 0 0-14-14m2 174a2 2 0 0 1-2 2h-40a2 2 0 0 1-2-2V48a2 2 0 0 1 2-2h40a2 2 0 0 1 2 2ZM96 34H56a14 14 0 0 0-14 14v160a14 14 0 0 0 14 14h40a14 14 0 0 0 14-14V48a14 14 0 0 0-14-14m2 174a2 2 0 0 1-2 2H56a2 2 0 0 1-2-2V48a2 2 0 0 1 2-2h40a2 2 0 0 1 2 2Z"/></svg>

<svg xmlns="http://www.w3.org/2000/svg" viewBox="0 0 256 256" fill="currentColor"><path d="M200,34H160a14,14,0,0,0-14,14V208a14,14,0,0,0,14,14h40a14,14,0,0,0,14-14V48A14,14,0,0,0,200,34Zm2,174a2,2,0,0,1-2,2H160a2,2,0,0,1-2-2V48a2,2,0,0,1,2-2h40a2,2,0,0,1,2,2ZM96,34H56A14,14,0,0,0,42,48V208a14,14,0,0,0,14,14H96a14,14,0,0,0,14-14V48A14,14,0,0,0,96,34Zm2,174a2,2,0,0,1-2,2H56a2,2,0,0,1-2-2V48a2,2,0,0,1,2-2H96a2,2,0,0,1,2,2Z"/></svg>
